packages/icon-set-ionic/svg/sharp/notifications-off-circle-sharp.svg

<svg viewBox="0 0 512 512" xmlns="http://www.w3.org/2000/svg"><path d="m256 48c-114.69 0-208 93.31-208 208s93.31 208 208 208 208-93.31 208-208-93.31-208-208-208zm-112 260 28-36v-32.3a131.83 131.83 0 0 1 2.34-25.42l111.58 121.72h-141.92zm112.18 76c-22.58 0-40.18-10.25-40.18-32h80c-.3 21.37-17.45 32-39.82 32zm93.48-3.74-211-227 23.68-21.52 211 227zm18.34-49.41-.32-.38-155.5-169.63a73.4 73.4 0 0 1 15.82-5.41l4-27.43h48l4 27.43c40 8.92 56 44 56 84.27v32.3l28 36z"/></svg>

<svg xmlns="http://www.w3.org/2000/svg" viewBox="0 0 512 512"><path d="M256 48C141.31 48 48 141.31 48 256s93.31 208 208 208 208-93.31 208-208S370.69 48 256 48zM144 308l28-36v-32.3a131.83 131.83 0 0 1 2.34-25.42L285.92 336H144zm112.18 76C233.6 384 216 373.75 216 352h80c-.3 21.37-17.45 32-39.82 32zm93.48-3.74-211-227 23.68-21.52 211 227zM368 330.85l-.32-.38-155.5-169.63a73.4 73.4 0 0 1 15.82-5.41l4-27.43h48l4 27.43c40 8.92 56 44 56 84.27V272l28 36z"/></svg>
